!!!COM: Fux, Johann Joseph
!!!OMD: Gradus ad Parnassum Exercise
!!!YEC: CC0 1.0 Universal (Public Domain). Mark Gotham and FourScoreAndMore.org waive all rights to this document.
**kern	**kern	**kern
*part3	*part2	*part1
*staff3	*staff2	*staff1
*I"3	*I"2	*I"1
*I'Pno	*I'Pno	*I'Pno
!!LO:PB:g=z
*clefF4	*clefG2	*clefG2
*k[]	*k[]	*k[]
!!LO:TX:omd:t=
*M4/4	*M4/4	*M4/4
=188	=188	=188
!	!	!LO:TX:a:t=Fig. 121; Species&colon; 2; Modal final&colon; d; Cantus firmus&colon; 1
1D	2r	1d
.	2F/	.
=189	=189	=189
1D	2A/	1f
.	2B/	.
=190	=190	=190
1C	2c/	1e
.	2A/	.
=191	=191	=191
1G	2B/	1d
.	2A/	.
=192	=192	=192
1E	2G/	1g
.	2B/	.
=193	=193	=193
1D	2d/	1f
.	2B/	.
=194	=194	=194
1F	2A/	1a
.	2c/	.
=195	=195	=195
1C	2e/	1g
.	2c/	.
=196	=196	=196
1D	2A/	1f
.	[2d/	.
=197	=197	=197
1A	2d/]	1e
.	2c#X/	.
=198	=198	=198
1D	1d	1d
==	==	==
*-	*-	*-
!!!software: music21 v.9.7.1
!!!software: music21 v.9.7.1
!!!software: MuseScore 3.4.2
!!!RDF**kern: > = above
!!!RDF**kern: < = below
